twotone/svg/flip_to_back.svg

<svg xmlns="http://www.w3.org/2000/svg" width="24" height="24"><path fill="none" d="M0 0h24v24H0V0z"/><g fill="currentColor"><path d="M9 7H7v2h2V7zm0 4H7v2h2v-2zm0-8a2 2 0 0 0-2 2h2V3zm4 12h-2v2h2v-2zm6-12v2h2c0-1.1-.9-2-2-2zm-6 0h-2v2h2V3zM9 17v-2H7a2 2 0 0 0 2 2zm10-4h2v-2h-2v2zm0-4h2V7h-2v2zm0 8c1.1 0 2-.9 2-2h-2v2zM5 7H3v12a2 2 0 0 0 2 2h12v-2H5V7zm10-2h2V3h-2v2zm0 12h2v-2h-2v2z"/></g></svg>

<?xml version="1.0" encoding="utf-8"?>
<!-- Generator: Adobe Illustrator 19.1.0, SVG Export Plug-In . SVG Version: 6.00 Build 0)  -->
<svg version="1.1" xmlns="http://www.w3.org/2000/svg" xmlns:xlink="http://www.w3.org/1999/xlink" x="0px" y="0px" width="24px"
	 height="24px" viewBox="0 0 24 24" enable-background="new 0 0 24 24" xml:space="preserve">
<g id="Header_x2F_BG" display="none">
	<rect x="-226" y="-402" display="inline" fill="#F1F1F2" width="520" height="520"/>
</g>
<g id="Bounding_Boxes">
	<g id="ui_x5F_spec_x5F_header_copy_3">
	</g>
	<path fill="none" d="M0,0h24v24H0V0z"/>
</g>
<g id="Rounded" display="none">
	<g id="ui_x5F_spec_x5F_header_copy_5" display="inline">
	</g>
	<path display="inline" d="M9,7H7v2h2V7z M9,11H7v2h2V11z M9,3C7.89,3,7,3.9,7,5h2V3z M13,15h-2v2h2V15z M19,3v2h2
		C21,3.9,20.1,3,19,3z M13,3h-2v2h2V3z M9,17v-2H7C7,16.1,7.89,17,9,17z M19,13h2v-2h-2V13z M19,9h2V7h-2V9z M19,17c1.1,0,2-0.9,2-2
		h-2V17z M4,7L4,7C3.45,7,3,7.45,3,8v11c0,1.1,0.9,2,2,2h11c0.55,0,1-0.45,1-1v0c0-0.55-0.45-1-1-1H6c-0.55,0-1-0.45-1-1V8
		C5,7.45,4.55,7,4,7z M15,5h2V3h-2V5z M15,17h2v-2h-2V17z"/>
</g>
<g id="Sharp" display="none">
	<g id="ui_x5F_spec_x5F_header_copy_4" display="inline">
	</g>
	<path display="inline" d="M9,7H7v2h2V7z M9,11H7v2h2V11z M13,15h-2v2h2V15z M13,3h-2v2h2V3z M9,3H7v2h2V3z M21,3h-2v2h2V3z M21,15
		h-2v2h2V15z M9,15H7v2h2V15z M19,13h2v-2h-2V13z M19,9h2V7h-2V9z M5,7H3v14h14v-2H5V7z M15,5h2V3h-2V5z M15,17h2v-2h-2V17z"/>
</g>
<g id="Outline" display="none">
	<g id="ui_x5F_spec_x5F_header" display="inline">
	</g>
	<path display="inline" d="M9,7H7v2h2V7z M9,11H7v2h2V11z M9,3C7.89,3,7,3.9,7,5h2V3z M13,15h-2v2h2V15z M19,3v2h2
		C21,3.9,20.1,3,19,3z M13,3h-2v2h2V3z M9,17v-2H7C7,16.1,7.89,17,9,17z M19,13h2v-2h-2V13z M19,9h2V7h-2V9z M19,17c1.1,0,2-0.9,2-2
		h-2V17z M5,7H3v12c0,1.1,0.89,2,2,2h12v-2H5V7z M15,5h2V3h-2V5z M15,17h2v-2h-2V17z"/>
</g>
<g id="Duotone" fill="currentColor">
	<g id="ui_x5F_spec_x5F_header_copy_2">
	</g>
	<path d="M9,7H7v2h2V7z M9,11H7v2h2V11z M9,3C7.89,3,7,3.9,7,5h2V3z M13,15h-2v2h2V15z M19,3v2h2C21,3.9,20.1,3,19,3z M13,3h-2v2h2
		V3z M9,17v-2H7C7,16.1,7.89,17,9,17z M19,13h2v-2h-2V13z M19,9h2V7h-2V9z M19,17c1.1,0,2-0.9,2-2h-2V17z M5,7H3v12
		c0,1.1,0.89,2,2,2h12v-2H5V7z M15,5h2V3h-2V5z M15,17h2v-2h-2V17z"/>
</g>
<g id="Fill" display="none">
	<g id="ui_x5F_spec_x5F_header_copy" display="inline">
	</g>
	<path display="inline" d="M9,7H7v2h2V7z M9,11H7v2h2V11z M9,3C7.89,3,7,3.9,7,5h2V3z M13,15h-2v2h2V15z M19,3v2h2
		C21,3.9,20.1,3,19,3z M13,3h-2v2h2V3z M9,17v-2H7C7,16.1,7.89,17,9,17z M19,13h2v-2h-2V13z M19,9h2V7h-2V9z M19,17c1.1,0,2-0.9,2-2
		h-2V17z M5,7H3v12c0,1.1,0.89,2,2,2h12v-2H5V7z M15,5h2V3h-2V5z M15,17h2v-2h-2V17z"/>
</g>
<g id="nyt_x5F_exporter_x5F_info" display="none">
</g>
</svg>
